X:1
T:That Epidemic Rag
T:Music by Edna Williams
T:Words by Billy Foran
T:Copyright 1911 by Jos. W. Stern &amp; Co.
T:Copyright 1911 by Jos. W. Stern &amp; Co.
T:Copyright 1911 by Jos. W. Stern &amp; Co.
T:Copyright 1911 by Jos. W. Stern &amp; Co.
T:Copyright 1911 by Jos. W. Stern &amp; Co.
Z:Copyright 1911 by Jos. W. Stern & Co.
%%score 1 { ( 2 4 ) | ( 3 5 ) }
L:1/8
Q:1/4=80
M:2/4
K:F
V:1 treble nm="Voice"
V:2 treble nm="Piano"
V:4 treble 
V:3 bass 
V:5 bass 
V:1
"^Moderato" z4 | z4 | z4 | z4 | z4 |S z2 z |:[Q:1/4=80]"^Vamp" z | z4 | z2 z :|!p! C/ C/ | %10
w: |||||||||Have you|
w: |||||||||When the|
 F/ D/ C/ D/ F/ G3/2 | F3 C | A B/ c/- c d | B/ A/ G2 D | B/ A/ B/ G/ A/ ^G/ A/ ^F/ | G2- G D | %16
w: heard a- bout the new di-|sease, That's|spread- in' 'round _ the|un- i- verse? It's|noth- ing like the in- flu- en- za|sneeze, _ It's|
w: symp- tom of that chro- nic|craze, Once|fond- les and _ em-|bra- ces you, You're|quar- an- tined with joy for six- ty|days, _ No|
 G/ ^F/ G/ A/ G/ =F/ E/ D/ | E F/ G/- G C/ C/ | F/ D/ C/ D/ F/ G3/2 | F3 C | A B/ c/- c d | %21
w: not the ep- pi- zu- dy but it's|twice as worse. _ Folks are|strick- en with it ev- 'ry|where, The|germ is in _ the|
w: mat- ter where you go this mic- robe|chas- es you; _ And your|eyes be- gin to shake and|roll, Your|heart longs for _ your|
 e/ c/ A2 c/ d/ | e/ ^d/ e/ =d/- d/ ^c/ d | =c/ =B/ c/ B/- B/ ^A/ B | %24
w: at- mos- phere; You can|fum- i- gate, cam- * phor- ate,|vac- ci- nate, em- * i- grate,|
w: tur- tle dove, It goes|pump- in' and bump- * in' and|thump- in' and jump- * in' and|
 A/ ^G/ A/ =B/ c/ B/"^rit."[Q:1/4=60] c/[Q:1/4=40] d/ |"^a tempo"[Q:1/4=80] e c d e | !breath!c || %27
w: But it's bound to ov- er- take and|sting you in the|ear.|
w: Law- dy, Law- dy, Law- dy, how it|makes you spoon and|love.|
"^Chorus""^a tempo" F/ F/ G/ A/ G/ F/ |: _D4- | D F/ F/ G A | (A/G/) F/ C/- C2- | C C/ C/ D ^D | %32
w: It's that ep- i- dem- ic|rag,|_ That con- ta- gious|mel- * o- dy, _|_ That de- lir- ious|
w: |||||
 (E/^D/E/c/-) c2- | c ^F G ^G | A A/ ^G/ A A/ G/ | A/ ^G/ A/ A/- A A | d2 D2- | D d c A | A2 D2- | %39
w: drag, _ _ _ _|_ That makes you|dance, makes you prance, In a|fev- er- ish trance; _ It's|rag- ing,|_ that rav- ing|rag- time,|
w: |||||||
 D F E D | C/ D/ E/ F/- F/ G/ A/ B/ | c/ =B/ c/ d/- d c | (C/ D/) E/ F/- F/ G/ A/ B/ | %43
w: _ Oh! Doc- tor|joy- ous con- vul- * sions of mel-|o- di- ous pain, _ oh,|spasms _ of- ec- * sta- sy come|
w: ||||
 c/ =B/ c/ d/- d c | F/ E/ F/ _A/- A/ G/!<(! A | B/ =A/ B/ =B/- B/ ^A/ B!<)! | %46
w: get me a gain, _ I'm|pass- ing a- way, _ let me|swoon to the tune _ of that|
w: |||
!mp! c"^(Spoken)  Oh!  lawdy come and get me." z2 z | z c/ ^c/ d/ e/ d/ =c/ | F4- |1 %49
w: strain,|Oh that ep- i- de- mic|rag.|
w: |||
 F F/ F/ G/ A/ G/ F/ :|2S F z z |] %51
w: _ Oh that ep- i- de- mic|rag.|
w: ||
V:2
!f! [CF]/E/F/[C_A]/- [CA]/G/[CA] |!<(! [FB]/=A/B/[F^G=B]/- [FGB]/^A/[FGB]!<)! | %2
!ff! !>![F=Ac] z z2 | z c/^c/ [EBd]/e/d/=c/ | F C/^C/ D/E/D/=C/ | [A,F]2 !>![FAcf] |:!p! C/C/ | %7
 [A,F]/D/C/[A,F]/- [A,F]/D/C | G2 [CE_Bc] :|!p! C/C/ | [A,F]/D/C/D/ [A,F]<[B,G] | %11
 [A,F][A,D]/[A,C]/- [A,C]/[A,D]/[A,C] | [CFA][CFB]/[CFc]/- [CFc][DAd] | [DB]/A/ [DG]2 D | %14
 B/A/B/G/ A/^G/A/^F/ | [DG]^C/D/- D/C/D | [DFG]/^F/G/A/ G/=F/E/D/ | EF/[CEG]/- [CEG] c/c/ | %18
 [Af]/d/c/d/ [Af]<[Bg] | [Af][Ad]/[Ac]/- [Ac]/[Ad]/[Ac] | [Afa][Bb]/[cc']/- [cc'][dad'] | %21
 [ec'e']/c'/ [ea]2 c/d/ | e/^d/e/=d/- d/^c/[=Gd] | =c/=B/c/B/- B/^A/[EB] | %24
 A/^G/A/=B/ c/B/"_rit."c/d/ |"_a tempo" ec de | c ||!p!"_a tempo" F/F/ G/A/G/F/ |: %28
!p!!f! _D[FB]/[D_d]/- [Dd]/[FB]/[Dd]/[FB]/ | [_D_d]F/F/ GA | A/G/F/C/- C/[FA]/[Cc]/[FA]/ | %31
 [Cc][CFc]/[CFc]/ [Dd][^D^d] | [EBe]/^d/e/[cc']/- [cc']/[^d^f]/[eg]/[df]/ | %33
 [eg][c^d^f][ceg][ce^g] | [cfa]a/^g/ [ea]a/g/ | [fa]/[e^g]/[fa]/[fa]/- [fa][fa] | %36
 [dd']2 [Dd]^G/A/- | A/a/[dd'] [cc'][Aa] | [Aa]2 [Dd]^A/=B/- | B/d/[Ff] [Ge][^Gd] | %40
 [Ac]/d/e/f/- f/g/a/b/ | [ebc']/=b/c'/[e_bd']/- [ebd'][ebc'] | c/d/e/[cf]/- [cf]/g/a/b/ | %43
 [ebc']/=b/c'/[e_bd']/- [ebd'][ebc'] | [cf]/e/f/[c_a]/- [ca]/g/!<(![ca] | %45
 [fb]/=a/b/[f^g=b]/- [fgb]/^a/[fgb]!<)! |!mp! !>![f=ac'] z2 z | z c'/^c'/ [ebd']/e'/d'/=c'/ | %48
 fc/^c/ d/e/d/=c/ |1 !>![Af]!f!!p! F/F/ G/A/G/F/ :|2 !>![Af] z !>![fac'f'] |] %51
V:3
 _A,,_A, F,,F, | _D,_D D,D | !>![A,,A,] !>![=B,,,=B,,]!>![C,,C,] !>![=B,,=B,] | %3
!>![C,C] z C,[G,B,C] | [F,A,C] C,/^C,/ D,/E,/D,/=C,/ | [F,,F,]2 !>![F,,,F,,] |: z | F,,F, C,,C, | %8
 D,G, C, :| z | F,,F, C,,C, | F,,F, C,,C, | [G,,F,][G,,G,] [A,,A,][^F,,^F,] | %13
 [G,,G,][G,B,] D,[G,B,] | G,,G, A,,A, | B,,B, D,[G,B,] | [=B,,=B,][G,,G,] [A,,A,][B,,B,] | %17
 [C,C][=B,,=B,] [_B,,_B,][G,,G,] | [F,,F,][A,C] C,[B,CE] | F,[A,CF] C,[A,C] | %20
 [F,,F,][G,,G,] [A,,A,][F,,F,] | [A,,A,][E,A,C] E,[A,C] | CE =B,E | A,C =G,D | [F,C]2 [D,_A,C]2 | %25
 [G,C]2 [G,,G,]2 | [C,,C,] || F,/F,/ G,/A,/G,/F,/ |: B,,[F,B,] F,,[F,B,] | B,,F,/F,/ G,A, | %30
 C,[F,A,] A,,[F,A,] | F,, [A,,A,]2 [_A,,_A,] | [G,,G,][B,CE] C,[B,CE] | E,[B,CE] C,[B,CE] | %34
 !>![F,CF]2 !>![E,A,^C]2 | !>![D,D]!>![=C,=C] !>![B,,B,]!>![A,,A,] | [D,,D,] [D,^F,C]2 [D,F,C] | %37
 A,,[D,^F,C] D,,[D,F,C] | G,, [F,G,=B,]2 [F,G,B,] | G,,[F,G,=B,] =B,,[^G,B,] | %40
 [C,C]2 [F,,F,][^F,,^F,] | [G,,G,][G,B,C] C,[G,B,C] | [A,,A,]2 [F,,F,][^F,,^F,] | %43
 [G,,G,][G,B,C] C,[G,B,C] | _A,,_A, F,,F, | _D,_D D,D | %46
 !>![A,,A,] !>![=B,,,=B,,]!>![C,,C,] !>![=B,,=B,] |!>![C,C] z C,[B,CE] | [F,A,CF]C/^C/ D/E/D/=C/ |1 %49
 !>![F,F] F,/F,/ G,/A,/G,/F,/ :|2 !>![F,F] z !>![F,,C,F,] |] %51
V:4
 x4 | x4 | x4 | x4 | x4 | x3 |: x | x4 | z [=B,F] x :| x | x4 | x4 | x4 | x4 | D2 D2 | x4 | x4 | %17
 x4 | x4 | x4 | x4 | x4 | A3/2 ^G/- G x | E3/2 E/- E x | F2 F2 | [Ec]2 [F=B]2 | [EG] || x3 |: x4 | %29
 x4 | x4 | x4 | x4 | x4 | x4 | x4 | x [^fc'] x2 | x4 | x [=Bf] x2 | x4 | x4 | x4 | x4 | x4 | x4 | %45
 x4 | x4 | x4 | x4 |1 x4 :|2 x3 |] %51
V:5
 x4 | x4 | x4 | x4 | x4 | x3 |: x | x4 | D,2 x :| x | x4 | x4 | x4 | x4 | G,,2 A,,2 | B,,2 x2 | %16
 x4 | x4 | x4 | x4 | x4 | x4 | C2 =B,2 | A,2 G,2 | x4 | x4 | x || x3 |: x4 | x4 | x4 | x4 | x4 | %33
 x4 | x4 | x4 | x4 | x4 | x4 | x4 | x4 | x4 | x4 | x4 | x4 | x4 | x4 | x4 | x4 |1 x4 :|2 x3 |] %51

